Breeze Round Light/actions/32/document-save-as.svg

<svg xmlns="http://www.w3.org/2000/svg" viewBox="0 0 32 32">
  <defs
     id="defs3051">
<style type="text/css" id="current-color-scheme">.ColorScheme-Text {color:#fcfcfc;}</style>
  </defs>
  <path
     style="fill:currentColor;fill-opacity:1;stroke:none" 
     d="m 4,8 c 0,4 0,12 0,16 0,4 4,4 4,4 l 7,0 v -1 h -5 v -7 h 8 V 19 H 9 v 8 H 8 C 8,27 5,27 5,24 5,21 5,11 5,8 5,5 8,5 8,5 h 2 v 8 H 21 V 5 h 0.585938 L 27,10.414062 V 16 h 1 V 10 L 22,4 H 10 8 C 8,4 4,4 4,8 Z m 7,-3 h 6 v 7 H 11 Z M 24.398438,16 19.287109,21.111328 16,24.398438 V 28 h 3.601562 L 28,19.601562 Z m -2.048829,3.490234 2.160157,2.160157 -3.173828,3.173828 v -0.673828 l -1.013672,0.02344 h -1.035157 v -1.037109 -0.583985 z m -4.076171,4.074219 v 1.621094 h 2.027343 l 0.02148,0.654297 -1.082032,1.080078 h -1.439453 l -0.720703,-0.720703 v -1.441407 z"
     id="path76" 
     class="ColorScheme-Text"
     />
</svg>

<svg xmlns="http://www.w3.org/2000/svg" viewBox="0 0 32 32">
  <defs
     id="defs3051">
    <style
       type="text/css"
       id="current-color-scheme">
      .ColorScheme-Text {
        color:#232629;
      }
      </style>
  </defs>
  <path
     style="fill:currentColor;fill-opacity:1;stroke:none" 
     d="M 4 4 L 4 28 L 15 28 L 15 27 L 10 27 L 10 20 L 18 20 L 18 19 L 9 19 L 9 27 L 5 27 L 5 5 L 10 5 L 10 13 L 21 13 L 21 5 L 21.585938 5 L 27 10.414062 L 27 16 L 28 16 L 28 10 L 22 4 L 10 4 L 4 4 z M 11 5 L 17 5 L 17 12 L 11 12 L 11 5 z M 24.398438 16 L 19.287109 21.111328 L 16 24.398438 L 16 28 L 19.601562 28 L 28 19.601562 L 24.398438 16 z M 22.349609 19.490234 L 24.509766 21.650391 L 21.335938 24.824219 L 21.335938 24.150391 L 20.322266 24.173828 L 19.287109 24.173828 L 19.287109 23.136719 L 19.287109 22.552734 L 22.349609 19.490234 z M 18.273438 23.564453 L 18.273438 25.185547 L 20.300781 25.185547 L 20.322266 25.839844 L 19.240234 26.919922 L 17.800781 26.919922 L 17.080078 26.199219 L 17.080078 24.757812 L 18.273438 23.564453 z "
     id="path76" 
     class="ColorScheme-Text"
     />
</svg>
